X: 7
T: Shoujin calei zhan bugan
L: 1/8
M: 2/4
K: C
A GC2 [I:setbarnb 1]| 
G> A G A | 
e d/ c/ D E | 
G4 | 
A GC2 | 
G> A G A | 
e d/ c/ D E | 
C4 |]

@@@ Tune index: 8881
